X:1
T:Title
L:1/8
Q:1/4=90
M:2/4
K:C
V:1 treble nm="Church Organ, Staff"
V:1
 c c2 G- | G/F/E Gc | e d2 B- | B c3 | A G2 c- | c d2 B- | B c3 | d d3 | cc BB | A G2 F- | %10
w: By~Another~Cornish~Melody * *||||||||||
 F E2 G- | G A2 G- | G B2 c- | c B3 | G E2 G- | GA- A/G/A | Bc- c/B/c | d e2 c- | cB Ad | c c2 B- | %20
w: ||||||||||
 B .c3 |] %21
w: |

